svg/HTML5.svg

<svg viewBox="0 0 20 20" xmlns="http://www.w3.org/2000/svg">
<rect width="100%" height="100%" fill="#E34F26"/>
<path fill-rule="evenodd" clip-rule="evenodd" d="M17.4928 1.75L16.1455 16.9926L10 18.75L3.8545 16.9926L2.50725 1.75H17.4928ZM10 15.5136L6.11763 14.4362L5.8945 11.4697H7.72838L7.88563 12.987L10 13.5289L12.0612 12.9572L12.295 10.5539H5.78188L5.257 4.84399H14.6899L14.522 6.73524H7.35438L7.52225 8.67324H14.3541L13.8101 14.4277L10 15.5136Z" fill="white"/>
</svg>

<svg xmlns="http://www.w3.org/2000/svg" viewBox="0 0 20 20">
  <rect width="100%" height="100%" fill="#E34F26"/>
  <path fill="#fff" fill-rule="evenodd" d="m17.5 1.75-1.35 15.24L10 18.75l-6.15-1.76L2.51 1.75h14.98ZM10 15.51l-3.88-1.07-.23-2.97h1.84l.16 1.52 2.11.54 2.06-.57.23-2.4H5.8l-.53-5.72h9.43l-.17 1.9H7.35l.17 1.93h6.83l-.54 5.76L10 15.5Z" clip-rule="evenodd"/>
</svg>
